symbols/web/outbox/materialsymbolssharp/outbox_wght200gradN25_24px.svg

<svg xmlns="http://www.w3.org/2000/svg" height="24" width="24"><path d="M11.55 13.175v-4.7l-2.1 2.1-.675-.625 3.25-3.25 3.225 3.225-.675.65-2.1-2.1v4.7Zm-7.4 6.675V4.15h15.7v15.7Zm.9-.9h13.9v-3.4h-3.6q-.525.95-1.412 1.475-.888.525-1.913.525-1.05 0-1.937-.525Q9.2 16.5 8.675 15.55H5.05Zm6.975-2.325q.925 0 1.688-.55.762-.55 1.112-1.45h4.125V5.05H5.05v9.575H9.2q.35.9 1.125 1.45.775.55 1.7.55ZM5.05 18.95h13.9Z"/></svg>

<svg xmlns="http://www.w3.org/2000/svg" height="24" width="24"><path d="M11.55 13.175V8.475L9.45 10.575L8.775 9.95L12.025 6.7L15.25 9.925L14.575 10.575L12.475 8.475V13.175ZM4.15 19.85V4.15H19.85V19.85ZM5.05 18.95H18.95V15.55H15.35Q14.825 16.5 13.938 17.025Q13.05 17.55 12.025 17.55Q10.975 17.55 10.088 17.025Q9.2 16.5 8.675 15.55H5.05ZM12.025 16.625Q12.95 16.625 13.713 16.075Q14.475 15.525 14.825 14.625H18.95V5.05H5.05V14.625H9.2Q9.55 15.525 10.325 16.075Q11.1 16.625 12.025 16.625ZM5.05 18.95H8.675Q9.2 18.95 10.088 18.95Q10.975 18.95 12.025 18.95Q13.05 18.95 13.938 18.95Q14.825 18.95 15.35 18.95H18.95Z"/></svg>
